X: 1
T: Arran Boat Song
M: 3/4
L: 1/8
R: waltz
K: Emin
E6|B3 ^cd2|A3 FD2|A3 FD2|E6|B3 ^cd2|AF3 D2|E6:|
e4 fe|g3 fe2|d3 BG2|A3 FD2|e4 fe|g3 fe2|^dB3 d2|e6|
e4 fe|g3 fe2|d3 BG2|A3 FD2|E6|B3 ^cd2|AF3 D2|E4B2|||
